static/images/backgrounds/circle.svg

<svg fill="none" height="1091" viewBox="0 0 1091 1091" width="1091" xmlns="http://www.w3.org/2000/svg"><g fill="#ffd954"><path d="m545.321 1090.37c-1.766 0-3.511-.01-5.282-.03-145.616-1.37-281.982-59.37-383.979-163.31-101.994-103.941-157.41046-241.378-156.0349973-386.991 1.3725873-145.617 59.3703973-281.983 163.3099973-383.977 102.674-100.7547 238.06-156.062 381.708-156.062 1.767 0 3.512.0086313 5.282.0258784 145.617 1.3754616 281.983 59.3734216 383.98 163.3101216 101.995 103.94 157.415 241.376 156.035 386.992-1.38 145.613-59.37 281.979-163.311 383.976-102.673 100.756-238.061 156.066-381.708 156.066zm-.274-1085.60687c-142.404 0-276.592 54.81707-378.374 154.69987-103.0304 101.101-160.52106 236.276-161.88215 380.621-1.36396 144.342 53.56825 280.574 154.67115 383.609 101.103 103.027 236.28 160.517 380.624 161.877 1.742.02 3.49.03 5.234.03 142.402 0 276.591-54.82 378.373-154.699 103.027-101.103 160.517-236.278 161.877-380.622 1.37-144.344-53.56-280.577-154.666-383.608-101.103-103.0276-236.277-160.521-380.623-161.88208-1.745-.01581-3.492-.02579-5.234-.02579z"/><path d="m545.325 1045.08c-1.587 0-3.169-.01-4.759-.03-133.56-1.23-258.644-54.406-352.207-149.719-93.564-95.315-144.4128-221.36-143.1753-354.916 1.2375-133.56 54.4105-258.641 149.7253-352.207 94.18-92.4504 218.371-143.1958 350.159-143.1958 1.587 0 3.169.0072 4.757.0216 133.561 1.2375 258.642 54.4104 352.207 149.7252 93.563 95.312 144.408 221.36 143.178 354.917-1.24 133.56-54.415 258.641-149.73 352.207-94.173 92.449-218.364 143.197-350.155 143.197zm-.256-995.3032c-130.539 0-253.531 50.2552-346.822 141.8332-94.406 92.672-147.0715 216.563-148.2975 348.847-1.226 132.287 49.1386 257.132 141.8115 351.538 92.672 94.403 216.563 147.065 348.847 148.295 1.568.01 3.153.02 4.716.02 130.543 0 253.534-50.254 346.82-141.829 94.405-92.672 147.066-216.563 148.296-348.847 1.23-132.287-49.135-257.134-141.81-351.539-92.671-94.405-216.562-147.0708-348.846-148.2968-1.567-.0143-3.148-.0214-4.715-.0214z"/><path d="m545.335 999.79c-1.414 0-2.823-.007-4.238-.018-121.501-1.101-235.3-49.448-320.435-136.141-85.134-86.685-131.4149-201.342-130.3139-322.842 1.1009-121.499 49.4479-235.299 136.1379-320.435 86.694-85.13 201.462-131.3987 322.845-130.3136 121.499 1.1024 235.295 49.4506 320.435 136.1406 85.133 86.69 131.414 201.346 130.314 322.845-1.102 121.5-49.448 235.299-136.141 320.432-85.681 84.142-198.683 130.332-318.604 130.332zm-.236-905.0024c-118.672 0-230.486 45.7024-315.276 128.9704-85.783 84.242-133.6225 196.848-134.7119 317.074-1.0895 120.23 44.7059 233.683 128.9509 319.462 84.24 85.784 196.846 133.625 317.075 134.713 1.395.012 2.803.019 4.194.019 118.675 0 230.479-45.699 315.269-128.97 85.783-84.241 133.622-196.846 134.712-317.072 1.089-120.225-44.708-233.681-128.95-319.466-84.242-85.78-196.85-133.6207-317.074-134.7116-1.395-.0115-2.795-.0188-4.189-.0188z"/><path d="m545.322 954.508c-1.233 0-2.466-.004-3.701-.016-109.44-.966-211.956-44.489-288.657-122.555-76.706-78.065-118.417-181.331-117.457-290.773.966-109.439 44.488-211.953 122.553-288.657 77.183-75.835 179.005-117.472 287.061-117.472 1.243 0 2.469.005 3.711.016 109.44.963 211.955 44.485 288.66 122.553 76.707 78.068 118.417 181.332 117.454 290.771-.963 109.44-44.484 211.953-122.552 288.657-77.187 75.84-179.004 117.476-287.072 117.476zm-.199-814.707c-106.806 0-207.435 41.146-283.723 116.104-77.158 75.813-120.176 177.135-121.129 285.302-.951 108.17 40.28 210.232 116.09 287.39 75.812 77.159 177.135 120.176 285.302 121.131 1.215.011 2.445.016 3.659.016 106.816.004 207.439-41.145 283.729-116.106 77.161-75.812 120.177-177.135 121.128-285.302.954-108.167-40.273-210.231-116.086-287.389-75.813-77.16-177.138-120.177-285.304-121.128 0 0-2.448-.018-3.666-.018z"/><path d="m545.333 909.22c-1.064 0-2.117-.005-3.182-.015-97.379-.823-188.611-39.521-256.885-108.967-68.277-69.443-105.422-161.317-104.596-258.697.827-97.383 39.525-188.615 108.968-256.887 69.443-68.274 161.34-105.324 258.698-104.593 97.379.823 188.611 39.521 256.886 108.967 68.274 69.443 105.418 161.317 104.595 258.7-.827 97.38-39.525 188.612-108.968 256.885-68.686 67.527-159.322 104.605-255.516 104.607zm-.18-724.408c-94.945 0-184.385 36.588-252.176 103.239-68.536 67.381-106.727 157.422-107.543 253.531-.817 96.109 35.843 186.78 103.227 255.314 67.384 68.538 157.422 106.73 253.53 107.544 1.042.008 2.095.014 3.139.014 94.944.003 184.385-36.589 252.178-103.239 68.535-67.382 106.727-157.419 107.543-253.53.815-96.108-35.847-186.781-103.227-255.317-67.383-68.537-157.422-106.73-253.531-107.543 0 0-2.095-.013-3.14-.013z"/><path d="m545.329 863.934c-.883 0-1.767-.004-2.651-.011-85.32-.687-165.267-34.562-225.114-95.383-59.844-60.817-92.421-141.3-91.734-226.622.689-85.324 34.565-165.272 95.384-225.114 60.186-59.224 139.632-91.745 223.971-91.745.884 0 1.767.005 2.651.012 85.322.687 165.27 34.562 225.114 95.382 59.847 60.818 92.423 141.301 91.735 226.622-.688 85.325-34.565 165.273-95.383 225.115-60.188 59.222-139.634 91.743-223.973 91.744zm-.143-634.112c-83.087 0-161.34 32.033-220.631 90.379-59.913 58.952-93.282 137.705-93.961 221.755-.677 84.049 31.415 163.332 90.366 223.244 58.954 59.912 137.709 93.281 221.755 93.958.868.008 1.748.012 2.613.012 83.087.003 161.34-32.032 220.634-90.378 59.911-58.949 93.28-137.704 93.959-221.756.679-84.049-31.415-163.332-90.367-223.244s-137.706-93.281-221.755-93.958c0 0-1.748-.012-2.613-.012z"/><path d="m545.329 818.649c-.71 0-1.412-.003-2.124-.007-73.266-.553-141.928-29.603-193.342-81.797-51.414-52.195-79.423-121.287-78.873-194.553.552-73.26 29.602-141.927 81.795-193.342 51.691-50.913 119.958-78.88 192.431-78.88.71 0 1.413.003 2.124.008 73.263.552 141.927 29.602 193.341 81.794 51.413 52.199 79.426 121.292 78.874 194.552-.552 73.263-29.602 141.927-81.798 193.342-51.688 50.917-119.958 78.883-192.428 78.883zm-.112-543.814c-71.218 0-138.295 27.478-189.086 77.512-51.289 50.522-79.833 117.992-80.376 189.983s26.981 139.883 77.501 191.169c50.52 51.288 117.992 79.832 189.985 80.377.693.004 1.391.007 2.084.007 71.218 0 138.292-27.477 189.085-77.513 51.29-50.52 79.836-117.992 80.377-189.983.542-71.988-26.984-139.879-77.507-191.169-50.52-51.288-117.991-79.833-189.98-80.376-.69-.004-1.389-.007-2.083-.007z"/><path d="m545.336 773.361c-.534 0-1.063 0-1.601-.004-61.204-.414-118.585-24.636-161.57-68.21-42.984-43.57-66.43-101.273-66.013-162.476.414-61.202 24.636-118.583 68.21-161.57 43.189-42.608 100.271-66.018 160.877-66.018.534 0 1.063 0 1.601.004 61.201.414 118.583 24.636 161.57 68.21 42.984 43.57 66.43 101.274 66.013 162.478-.414 61.205-24.636 118.586-68.209 161.57-43.19 42.606-100.274 66.015-160.878 66.016zm-.097-453.514c-59.352 0-115.236 22.918-157.532 64.646-42.665 42.093-66.385 98.281-66.791 158.211-.406 59.931 22.55 116.434 64.641 159.099 42.092 42.665 98.279 66.386 158.211 66.791.519.004 1.05.004 1.568.004 59.352.005 115.236-22.917 157.532-64.645 42.665-42.092 66.385-98.279 66.789-158.211.407-59.931-22.549-116.433-64.64-159.099-42.094-42.665-98.282-66.386-158.212-66.791 0 0-1.048-.005-1.566-.005z"/><path d="m545.328 728.079c-.358 0-.704 0-1.064-.003-49.143-.279-95.24-19.679-129.795-54.625-34.554-34.946-53.433-81.257-53.155-130.404.278-49.146 19.676-95.24 54.622-129.795 34.694-34.303 80.594-53.159 129.336-53.159.358 0 .71 0 1.071.003 49.142.278 95.237 19.673 129.795 54.622 34.554 34.946 53.433 81.257 53.155 130.406-.279 49.146-19.679 95.243-54.624 129.798-34.694 34.301-80.596 53.155-129.341 53.157zm-.056-363.221c-47.484 0-92.19 18.364-125.986 51.782-34.042 33.659-52.939 78.56-53.208 126.436-.27 47.875 18.12 92.985 51.779 127.026 33.662 34.043 78.564 52.94 126.436 53.211.345.002.688.003 1.033.003 47.489 0 92.198-18.364 125.994-51.782 34.04-33.662 52.94-78.564 53.209-126.438.27-47.875-18.12-92.985-51.779-127.026-33.662-34.043-78.564-52.94-126.436-53.208 0-.003-.696-.004-1.042-.004z"/><path d="m545.328 682.792h-.53c-37.086-.14-71.899-14.714-98.026-41.037-26.125-26.324-40.437-61.243-40.296-98.33.136-37.087 14.711-71.901 41.035-98.026 26.193-25.997 60.908-40.296 97.793-40.296h.537c37.086.139 71.899 14.713 98.026 41.035 26.125 26.323 40.437 61.243 40.298 98.33-.139 37.086-14.713 71.899-41.035 98.026-26.2 25.998-60.913 40.298-97.802 40.298zm-.026-272.924c-35.619 0-69.139 13.807-94.438 38.916-25.418 25.23-39.492 58.847-39.625 94.661-.135 35.813 13.685 69.536 38.915 94.957 25.227 25.418 58.847 39.492 94.661 39.627h.509c35.627.002 69.145-13.807 94.447-38.919 25.418-25.229 39.49-58.847 39.625-94.661.135-35.813-13.686-69.536-38.915-94.957-25.23-25.418-58.848-39.49-94.661-39.625z"/><path d="m545.333 637.508c-51.666 0-93.699-42.033-93.699-93.698s42.033-93.698 93.699-93.698 93.7 42.033 93.7 93.698c-.001 51.665-42.034 93.698-93.7 93.698zm0-182.632c-49.038 0-88.933 39.894-88.933 88.934 0 49.038 39.895 88.932 88.933 88.932 49.037 0 88.934-39.894 88.934-88.932 0-49.04-39.897-88.934-88.934-88.934z"/><path d="m548.348 2.18481-10.639 1085.59519 4.765.05 10.639-1085.59849z"/><path d="m688.322 21.2619-290.469 1046.3381 4.592 1.28 290.47-1046.3432z"/><path d="m818.906 76.5056-551.466 935.2844 4.103 2.42 551.466-935.2852z"/><path d="m930.864 163.497-775.01 760.137 3.337 3.401 775.009-760.136z"/><path d="m1016.63 275.921-945.4991 533.768 2.3422 4.149 945.4969-533.768z"/><path d="m1070.47 407.095-1051.4458 271.358 1.1913 4.617 1051.4445-271.358z"/><path d="m2.33092 537.414-.04479 4.764 1085.59387 10.205.05-4.764z"/><path d="m22.5515 397.572-1.2768 4.592 1046.1253 290.904 1.28-4.592z"/><path d="m78.6989 267.138-2.4201 4.103 935.1812 551.684 2.42-4.102z"/><path d="m166.476 156.049-3.401 3.337 760.352 774.79 3.4-3.337z"/><path d="m280.219 71.2571-4.148 2.3431 533.985 945.3898 4.148-2.35z"/><path d="m411.807 18.8223-4.617 1.1905 271.142 1051.4472 4.616-1.19z"/></g></svg>

<svg width="1091" height="1091" viewBox="0 0 1091 1091" fill="none" xmlns="http://www.w3.org/2000/svg">
<path d="M545.321 1090.37C543.555 1090.37 541.81 1090.36 540.039 1090.34C394.423 1088.97 258.057 1030.97 156.06 927.03C54.066 823.089 -1.35046 685.652 0.0250027 540.039C1.39759 394.422 59.3954 258.056 163.335 156.062C266.009 55.3073 401.395 0 545.043 0C546.81 0 548.555 0.0086313 550.325 0.0258784C695.942 1.40134 832.308 59.3993 934.305 163.336C1036.3 267.276 1091.72 404.712 1090.34 550.328C1088.96 695.941 1030.97 832.307 927.029 934.304C824.356 1035.06 688.968 1090.37 545.321 1090.37ZM545.047 4.76313C402.643 4.76313 268.455 59.5802 166.673 159.463C63.6426 260.564 6.15194 395.739 4.79085 540.084C3.42689 684.426 58.3591 820.658 159.462 923.693C260.565 1026.72 395.742 1084.21 540.086 1085.57C541.828 1085.59 543.576 1085.6 545.32 1085.6C687.722 1085.6 821.911 1030.78 923.693 930.901C1026.72 829.798 1084.21 694.623 1085.57 550.279C1086.94 405.935 1032.01 269.702 930.904 166.671C829.801 63.6434 694.627 6.15 550.281 4.78892C548.536 4.77311 546.789 4.76313 545.047 4.76313Z" fill="#FFD954"/>
<path d="M545.325 1045.08C543.738 1045.08 542.156 1045.07 540.566 1045.05C407.006 1043.82 281.922 990.644 188.359 895.331C94.795 800.016 43.9462 673.971 45.1837 540.415C46.4212 406.855 99.5942 281.774 194.909 188.208C289.089 95.7576 413.28 45.0122 545.068 45.0122C546.655 45.0122 548.237 45.0194 549.825 45.0338C683.386 46.2713 808.467 99.4442 902.032 194.759C995.595 290.071 1046.44 416.119 1045.21 549.676C1043.97 683.236 990.795 808.317 895.48 901.883C801.307 994.332 677.116 1045.08 545.325 1045.08ZM545.069 49.7768C414.53 49.7768 291.538 100.032 198.247 191.61C103.841 284.282 51.1755 408.173 49.9495 540.457C48.7235 672.744 99.0881 797.589 191.761 891.995C284.433 986.398 408.324 1039.06 540.608 1040.29C542.176 1040.3 543.761 1040.31 545.324 1040.31C675.867 1040.31 798.858 990.056 892.144 898.481C986.549 805.809 1039.21 681.918 1040.44 549.634C1041.67 417.347 991.305 292.5 898.63 198.095C805.959 103.69 682.068 51.0242 549.784 49.7982C548.217 49.7839 546.636 49.7768 545.069 49.7768Z" fill="#FFD954"/>
<path d="M545.335 999.79C543.921 999.79 542.512 999.783 541.097 999.772C419.596 998.671 305.797 950.324 220.662 863.631C135.528 776.946 89.2471 662.289 90.3481 540.789C91.449 419.29 139.796 305.49 226.486 220.354C313.18 135.224 427.948 88.9553 549.331 90.0404C670.83 91.1428 784.626 139.491 869.766 226.181C954.899 312.871 1001.18 427.527 1000.08 549.026C998.978 670.526 950.632 784.325 863.939 869.458C778.258 953.6 665.256 999.79 545.335 999.79ZM545.099 94.7876C426.427 94.7876 314.613 140.49 229.823 223.758C144.04 308 96.2005 420.606 95.1111 540.832C94.0216 661.062 139.817 774.515 224.062 860.294C308.302 946.078 420.908 993.919 541.137 995.007C542.532 995.019 543.94 995.026 545.331 995.026C664.006 995.026 775.81 949.327 860.6 866.056C946.383 781.815 994.222 669.21 995.312 548.984C996.401 428.759 950.604 315.303 866.362 229.518C782.12 143.738 669.512 95.8973 549.288 94.8064C547.893 94.7949 546.493 94.7876 545.099 94.7876Z" fill="#FFD954"/>
<path d="M545.322 954.508C544.089 954.508 542.856 954.504 541.621 954.492C432.181 953.526 329.665 910.003 252.964 831.937C176.258 753.872 134.547 650.606 135.507 541.164C136.473 431.725 179.995 329.211 258.06 252.507C335.243 176.672 437.065 135.035 545.121 135.035C546.364 135.035 547.59 135.04 548.832 135.051C658.272 136.014 760.787 179.536 837.492 257.604C914.199 335.672 955.909 438.936 954.946 548.375C953.983 657.815 910.462 760.328 832.394 837.032C755.207 912.872 653.39 954.508 545.322 954.508ZM545.123 139.801C438.317 139.801 337.688 180.947 261.4 255.905C184.242 331.718 141.224 433.04 140.271 541.207C139.32 649.377 180.551 751.439 256.361 828.597C332.173 905.756 433.496 948.773 541.663 949.728C542.878 949.739 544.108 949.744 545.322 949.744C652.138 949.748 752.761 908.599 829.051 833.638C906.212 757.826 949.228 656.503 950.179 548.336C951.133 440.169 909.906 338.105 834.093 260.947C758.28 183.787 656.955 140.77 548.789 139.819C548.789 139.819 546.341 139.801 545.123 139.801Z" fill="#FFD954"/>
<path d="M545.333 909.22C544.269 909.22 543.216 909.215 542.151 909.205C444.772 908.382 353.54 869.684 285.266 800.238C216.989 730.795 179.844 638.921 180.67 541.541C181.497 444.158 220.195 352.926 289.638 284.654C359.081 216.38 450.978 179.33 548.336 180.061C645.715 180.884 736.947 219.582 805.222 289.028C873.496 358.471 910.64 450.345 909.817 547.728C908.99 645.108 870.292 736.34 800.849 804.613C732.163 872.14 641.527 909.218 545.333 909.22ZM545.153 184.812C450.208 184.812 360.768 221.4 292.977 288.051C224.441 355.432 186.25 445.473 185.434 541.582C184.617 637.691 221.277 728.362 288.661 796.896C356.045 865.434 446.083 903.626 542.191 904.44C543.233 904.448 544.286 904.454 545.33 904.454C640.274 904.457 729.715 867.865 797.508 801.215C866.043 733.833 904.235 643.796 905.051 547.685C905.866 451.577 869.204 360.904 801.824 292.368C734.441 223.831 644.402 185.638 548.293 184.825C548.293 184.825 546.198 184.812 545.153 184.812Z" fill="#FFD954"/>
<path d="M545.329 863.934C544.446 863.934 543.562 863.93 542.678 863.923C457.358 863.236 377.411 829.361 317.564 768.54C257.72 707.723 225.143 627.24 225.83 541.918C226.519 456.594 260.395 376.646 321.214 316.804C381.4 257.58 460.846 225.059 545.185 225.059C546.069 225.059 546.952 225.064 547.836 225.071C633.158 225.758 713.106 259.633 772.95 320.453C832.797 381.271 865.373 461.754 864.685 547.075C863.997 632.4 830.12 712.348 769.302 772.19C709.114 831.412 629.668 863.933 545.329 863.934ZM545.186 229.822C462.099 229.822 383.846 261.855 324.555 320.201C264.642 379.153 231.273 457.906 230.594 541.956C229.917 626.005 262.009 705.288 320.96 765.2C379.914 825.112 458.669 858.481 542.715 859.158C543.583 859.166 544.463 859.17 545.328 859.17C628.415 859.173 706.668 827.138 765.962 768.792C825.873 709.843 859.242 631.088 859.921 547.036C860.6 462.987 828.506 383.704 769.554 323.792C710.602 263.88 631.848 230.511 547.799 229.834C547.799 229.834 546.051 229.822 545.186 229.822Z" fill="#FFD954"/>
<path d="M545.329 818.649C544.619 818.649 543.917 818.646 543.205 818.642C469.939 818.089 401.277 789.039 349.863 736.845C298.449 684.65 270.44 615.558 270.99 542.292C271.542 469.032 300.592 400.365 352.785 348.95C404.476 298.037 472.743 270.07 545.216 270.07C545.926 270.07 546.629 270.073 547.34 270.078C620.603 270.63 689.267 299.68 740.681 351.872C792.094 404.071 820.107 473.164 819.555 546.424C819.003 619.687 789.953 688.351 737.757 739.766C686.069 790.683 617.799 818.649 545.329 818.649ZM545.217 274.835C473.999 274.835 406.922 302.313 356.131 352.347C304.842 402.869 276.298 470.339 275.755 542.33C275.212 614.321 302.736 682.213 353.256 733.499C403.776 784.787 471.248 813.331 543.241 813.876C543.934 813.88 544.632 813.883 545.325 813.883C616.543 813.883 683.617 786.406 734.41 736.37C785.7 685.85 814.246 618.378 814.787 546.387C815.329 474.399 787.803 406.508 737.28 355.218C686.76 303.93 619.289 275.385 547.3 274.842C546.61 274.838 545.911 274.835 545.217 274.835Z" fill="#FFD954"/>
<path d="M545.336 773.361C544.802 773.361 544.273 773.361 543.735 773.357C482.531 772.943 425.15 748.721 382.165 705.147C339.181 661.577 315.735 603.874 316.152 542.671C316.566 481.469 340.788 424.088 384.362 381.101C427.551 338.493 484.633 315.083 545.239 315.083C545.773 315.083 546.302 315.083 546.84 315.087C608.041 315.501 665.423 339.723 708.41 383.297C751.394 426.867 774.84 484.571 774.423 545.775C774.009 606.98 749.787 664.361 706.214 707.345C663.024 749.951 605.94 773.36 545.336 773.361ZM545.239 319.847C485.887 319.847 430.003 342.765 387.707 384.493C345.042 426.586 321.322 482.774 320.916 542.704C320.51 602.635 343.466 659.138 385.557 701.803C427.649 744.468 483.836 768.189 543.768 768.594C544.287 768.598 544.818 768.598 545.336 768.598C604.688 768.603 660.572 745.681 702.868 703.953C745.533 661.861 769.253 605.674 769.657 545.742C770.064 485.811 747.108 429.309 705.017 386.643C662.923 343.978 606.735 320.257 546.805 319.852C546.805 319.852 545.757 319.847 545.239 319.847Z" fill="#FFD954"/>
<path d="M545.328 728.079C544.97 728.079 544.624 728.079 544.264 728.076C495.121 727.797 449.024 708.397 414.469 673.451C379.915 638.505 361.036 592.194 361.314 543.047C361.592 493.901 380.99 447.807 415.936 413.252C450.63 378.949 496.53 360.093 545.272 360.093C545.63 360.093 545.982 360.093 546.343 360.096C595.485 360.374 641.58 379.769 676.138 414.718C710.692 449.664 729.571 495.975 729.293 545.124C729.014 594.27 709.614 640.367 674.669 674.922C639.975 709.223 594.073 728.077 545.328 728.079ZM545.272 364.858C497.788 364.858 453.082 383.222 419.286 416.64C385.244 450.299 366.347 495.2 366.078 543.076C365.808 590.951 384.198 636.061 417.857 670.102C451.519 704.145 496.421 723.042 544.293 723.313C544.638 723.315 544.981 723.316 545.326 723.316C592.815 723.316 637.524 704.952 671.32 671.534C705.36 637.872 724.26 592.97 724.529 545.096C724.799 497.221 706.409 452.111 672.75 418.07C639.088 384.027 594.186 365.13 546.314 364.862C546.314 364.859 545.618 364.858 545.272 364.858Z" fill="#FFD954"/>
<path d="M545.328 682.792H544.798C507.712 682.652 472.899 668.078 446.772 641.755C420.647 615.431 406.335 580.512 406.476 543.425C406.612 506.338 421.187 471.524 447.511 445.399C473.704 419.402 508.419 405.103 545.304 405.103H545.841C582.927 405.242 617.74 419.816 643.867 446.138C669.992 472.461 684.304 507.381 684.165 544.468C684.026 581.554 669.452 616.367 643.13 642.494C616.93 668.492 582.217 682.792 545.328 682.792ZM545.302 409.868C509.683 409.868 476.163 423.675 450.864 448.784C425.446 474.014 411.372 507.631 411.239 543.445C411.104 579.258 424.924 612.981 450.154 638.402C475.381 663.82 509.001 677.894 544.815 678.029H545.324C580.951 678.031 614.469 664.222 639.771 639.11C665.189 613.881 679.261 580.263 679.396 544.449C679.531 508.636 665.71 474.913 640.481 449.492C615.251 424.074 581.633 410.002 545.82 409.867L545.302 409.868Z" fill="#FFD954"/>
<path d="M545.333 637.508C493.667 637.508 451.634 595.475 451.634 543.81C451.634 492.145 493.667 450.112 545.333 450.112C596.999 450.112 639.033 492.145 639.033 543.81C639.032 595.475 596.999 637.508 545.333 637.508ZM545.333 454.876C496.295 454.876 456.4 494.77 456.4 543.81C456.4 592.848 496.295 632.742 545.333 632.742C594.37 632.742 634.267 592.848 634.267 543.81C634.267 494.77 594.37 454.876 545.333 454.876Z" fill="#FFD954"/>
<path d="M548.348 2.18481L537.709 1087.78L542.474 1087.83L553.113 2.23151L548.348 2.18481Z" fill="#FFD954"/>
<path d="M688.322 21.2619L397.853 1067.6L402.445 1068.88L692.915 22.5368L688.322 21.2619Z" fill="#FFD954"/>
<path d="M818.906 76.5056L267.44 1011.79L271.543 1014.21L823.009 78.9248L818.906 76.5056Z" fill="#FFD954"/>
<path d="M930.864 163.497L155.854 923.634L159.191 927.035L934.2 166.899L930.864 163.497Z" fill="#FFD954"/>
<path d="M1016.63 275.921L71.1309 809.689L73.4731 813.838L1018.97 280.07L1016.63 275.921Z" fill="#FFD954"/>
<path d="M1070.47 407.095L19.0242 678.453L20.2155 683.07L1071.66 411.712L1070.47 407.095Z" fill="#FFD954"/>
<path d="M2.33092 537.414L2.28613 542.178L1087.88 552.383L1087.93 547.619L2.33092 537.414Z" fill="#FFD954"/>
<path d="M22.5515 397.572L21.2747 402.164L1067.4 693.068L1068.68 688.476L22.5515 397.572Z" fill="#FFD954"/>
<path d="M78.6989 267.138L76.2788 271.241L1011.46 822.925L1013.88 818.823L78.6989 267.138Z" fill="#FFD954"/>
<path d="M166.476 156.049L163.075 159.386L923.427 934.176L926.827 930.839L166.476 156.049Z" fill="#FFD954"/>
<path d="M280.219 71.2571L276.071 73.6002L810.056 1018.99L814.204 1016.64L280.219 71.2571Z" fill="#FFD954"/>
<path d="M411.807 18.8223L407.19 20.0128L678.332 1071.46L682.948 1070.27L411.807 18.8223Z" fill="#FFD954"/>
</svg>
